X:1
T:Title
%%score { 1 | 2 }
L:1/8
M:3/4
K:F
V:1 treble nm="Grand Piano"
V:2 bass 
V:1
 z2 z2[Q:1/4=100] A2 | A4 GF | A2 G2 F2 | [EG]2 [FA]2 [GB]2 | [CFA]4 [CAc]2 | [FAc]4 [CGB][CFA] | %6
 [FAc]2 [CGB]2 [CFA]2 | [CFA]2 [CGB]2 [CFA]2 | [CEG]4 A2 | A4 GF | A2 G2 F2 | c2 B2 A2 | %12
 [Fd]4 [Fd]2 | d4 cA | c2 [CF]2 [B,DF]2 | F3 G E2 |[M:2/4] F4 |] %17
V:2
 z2 z2 [F,CF]2 | [F,CF]4 [F,B,C][F,A,C] | [F,CF]2 [F,B,C]2 [F,A,C]2 | [C,C]2 [C,C]2 [C,C]2 | %4
 F,4 F,2 | F,4 F,F, | F,2 F,2 F,2 | F,2 E,2 F,2 | C,4 [F,CF]2 | [F,CF]4 [F,B,C][F,A,C] | %10
 [F,CF]2 [F,B,C]2 [F,A,C]2 | [F,A,F]2 [F,DF]2 [F,CF]2 | [B,,B,]4 [B,,B,]2 | %13
 [F,B,F]4 [F,A,F][F,CF] | [F,A,F]2 A,,2 B,,2 | [C,A,C]3 [C,B,C] [C,G,C]2 |[M:2/4] [F,A,C]4 |] %17

